X: 2
T: The Guns Of The Magnificent Seven
R: reel
M: 4/4
L: 1/8
K: Ador
|egdb A2 eg|dBGA (3Bcd eB|dBAa4 f||gedB BAA2||1234 1(2)34|1234 1234|1234 (123)4|1234 123(4)|


Tune 40	Setting 12456

